!!!OTL: Urzad zbawienia ludzkiego
**kern
*staff1
=--
*clefC1
*k[]
1c
1g
2a
2g
=-
2a
1g
2f
1g
=-
2e
2e
1f
1e
=-
2d
1c
2B
1c
=-
!!linebreak:original
2e
2e
1f
1d
=-
2e
1g
2f
1g
=-
2a
2g
1f
1e
=-
2.f
4e
2d
1c
2B
0c
=-=
*-
!!title: @{OTL}, @{GTL}, ed. @{ENC}
!!!pag:
!!!GTL: Hymnbook C
!!!EFL: 
!!!YEM: Creative Commons CC/BY/NC/SA 4.0
!!!ENC: Marcin Konik
!!!END: 2015-0m-dd
!!!EED: Marcin Konik
!!!EEV: 
!!!ONB: Encoded in vim by Marcin Konik
!!!CharacterEncoding: utf-8
!!!RDF**kern: l=long note in original notation
!!!RDF**kern: i=editorial accidental
!!muse2ps: z14jc180F
!!!COM: Anonim
!!!CDT: [?]
!!!TXO: Polish
!!!ODT: 
!!!GTL: Hymnbook C
!!!ARL: Opactwo św. Wojciecha, Staniątki 
!!!voices:	1
